web/ui/src/components/workflow/workflow-viewer/svgs/shape/start.svg

<svg height="200" viewBox="0 0 200 200" width="200" xmlns="http://www.w3.org/2000/svg"><g fill="none" fill-rule="evenodd"><rect fill="#fff" height="198" rx="51" stroke="#009315" stroke-width="2" width="198" x="1" y="1"/><path d="m60 119c-32.5848571 0-59-26.4067143-59-59s26.4151429-59 59-59c32.5932857 0 59 26.4067143 59 59s-26.4067143 59-59 59zm0-108.1385714v-.0337143c-28.1935714.0084286-49.1385714 22.0828571-49.1385714 49.1722857s22.0491428 49.138571 49.1385714 49.138571 49.138571-22.0407139 49.138571-49.138571-22.0407139-49.1385714-49.138571-49.1385714zm-8.6982857 73.0672857c-1.1817738.8566705-2.7681906.9001798-3.9951429.1095714-1.2984328-.8886492-2.0620168-2.3714596-2.0312857-3.9445714v-45.1181429c0-1.6351428.7754286-3.1438571 2.0312857-3.9445714 1.230623-.7919944 2.8217302-.7450987 4.0035715.118l31.4638571 22.5632857c1.1378571.826 1.8374286 2.2757143 1.8374286 3.8265714 0 1.5508572-.6995715 3.0005715-1.8458572 3.8181429z" fill="#009315" fill-rule="nonzero" transform="translate(40 40)"/></g></svg>

<?xml version="1.0" encoding="UTF-8"?>
<svg width="200px" height="200px" viewBox="0 0 200 200" version="1.1" xmlns="http://www.w3.org/2000/svg" xmlns:xlink="http://www.w3.org/1999/xlink">
    <title>node-version备份 4</title>
    <g id="页面-1" stroke="none" stroke-width="1" fill="none" fill-rule="evenodd">
        <g id="节点" transform="translate(-2995.000000, -1047.000000)">
            <g id="编组-10备份" transform="translate(2995.000000, 1047.000000)">
                <rect id="矩形备份-47" stroke="#009315" stroke-width="2" fill="#FFFFFF" x="1" y="1" width="198" height="198" rx="51"></rect>
                <g id="编组-8备份" transform="translate(40.000000, 40.000000)" fill="#009315" fill-rule="nonzero">
                    <path d="M60,119 C27.4151429,119 1,92.5932857 1,60 C1,27.4067143 27.4151429,1 60,1 C92.5932857,1 119,27.4067143 119,60 C119,92.5932857 92.5932857,119 60,119 Z M60,10.8614286 L60,10.8277143 C31.8064286,10.8361429 10.8614286,32.9105714 10.8614286,60 C10.8614286,87.0894286 32.9105714,109.138571 60,109.138571 C87.0894286,109.138571 109.138571,87.0978571 109.138571,60 C109.138571,32.9021429 87.0978571,10.8614286 60,10.8614286 Z M51.3017143,83.9287143 C50.1199405,84.7853848 48.5335237,84.8288941 47.3065714,84.0382857 C46.0081386,83.1496365 45.2445546,81.6668261 45.2752857,80.0937143 L45.2752857,34.9755714 C45.2752857,33.3404286 46.0507143,31.8317143 47.3065714,31.031 C48.5371944,30.2390056 50.1283016,30.2859013 51.3101429,31.149 L82.774,53.7122857 C83.9118571,54.5382857 84.6114286,55.988 84.6114286,57.5388571 C84.6114286,59.0897143 83.9118571,60.5394286 82.7655714,61.357 L51.3017143,83.9287143 L51.3017143,83.9287143 Z" id="形状"></path>
                </g>
            </g>
        </g>
    </g>
</svg>
